X:1
T:Title
%%score { 1 | 2 }
L:1/8
M:3/4
K:Ab
V:1 treble nm="Grand Piano"
V:2 bass 
V:1
 z2 z2[Q:1/4=100] [CE]>[CA] | [Ec]3 [EA] [DG]>[DB] | [CA]2 [CE]2 [EA]>[EG] | F3 B A>F | %4
 [A,CE]4 [B,EG]>[B,FA] | [DGB]3 [EGB] [EAc]>[EBd] | [DBd]2 [EAc]2 [CFB]>[CFA] | %7
 [B,EG]3 [EB] [=DA]>[DF] |[M:2/4] E4 |[M:1/4] c>d |[M:3/4] e3 c B>d | c4 A>[CGB] | %12
 [CAc]3 [CFA] [C=EG]>[CGB] | [CFA]4 [A,EA]>[A,EG] | [A,DF]3 [A,FA] [A,EG]>[G,DF] | %15
 [DF]2 [CE]2 [EA]>[FB] | c3 A B>c |[M:2/4] [CA]4 |] %18
V:2
 z2 z2 [A,,A,]>[A,,A,] | [A,,A,]3 [C,A,] [E,B,]>[E,G,] | [A,,A,]2 [A,,A,]2 [C,A,]>[C,A,] | %3
 [D,A,D]3 [D,F,D] [D,F,D]>[D,A,D] | A,,4 E,>E, | E,3 E, E,>E, | G,2 A,2 A,,>A,, | %7
 B,,3 [B,,G,] [B,,F,]>[B,,A,] |[M:2/4] [E,G,]4 |[M:1/4][K:treble] [A,E]>[A,B,E] | %10
[M:3/4] [A,CA]3[K:bass] [A,E] [E,G,E]>[E,B,E] | [A,E]4 [F,CF]>F, | F,3 F, C,>C, | F,4 C,>C, | %14
 D,3 D, D,>D, | [A,,A,]2 [A,,A,]2 [C,A,]>[D,A,] | [E,A,E]3 [E,C] [E,G,D]>[E,G,E] | %17
[M:2/4] [A,,A,]4 |] %18

